svg/fluentui-system-icons/ic_fluent_ratio_one_to_one_20_regular.svg

<svg width="20" height="20" viewBox="0 0 20 20" fill="none" xmlns="http://www.w3.org/2000/svg">
<path d="M6.76287 7.07467C6.91027 7.16578 7 7.32671 7 7.5V12.5C7 12.7761 6.77614 13 6.5 13C6.22386 13 6 12.7761 6 12.5V8.30902L5.72361 8.44721C5.47662 8.57071 5.17628 8.4706 5.05279 8.22361C4.92929 7.97662 5.0294 7.67628 5.27639 7.55279L6.27639 7.05279C6.43139 6.97529 6.61546 6.98357 6.76287 7.07467ZM14 7.5C14 7.32671 13.9103 7.16578 13.7629 7.07467C13.6155 6.98357 13.4314 6.97529 13.2764 7.05279L12.2764 7.55279C12.0294 7.67628 11.9293 7.97662 12.0528 8.22361C12.1763 8.4706 12.4766 8.57071 12.7236 8.44721L13 8.30902V12.5C13 12.7761 13.2239 13 13.5 13C13.7761 13 14 12.7761 14 12.5V7.5ZM10 8.5C10 8.77614 9.77614 9 9.5 9C9.22386 9 9 8.77614 9 8.5C9 8.22386 9.22386 8 9.5 8C9.77614 8 10 8.22386 10 8.5ZM9.5 12C9.77614 12 10 11.7761 10 11.5C10 11.2239 9.77614 11 9.5 11C9.22386 11 9 11.2239 9 11.5C9 11.7761 9.22386 12 9.5 12ZM2 6.75C2 5.23122 3.23122 4 4.75 4H15.25C16.7688 4 18 5.23122 18 6.75V13.25C18 14.7688 16.7688 16 15.25 16H4.75C3.23122 16 2 14.7688 2 13.25V6.75ZM4.75 5C3.7835 5 3 5.7835 3 6.75V13.25C3 14.2165 3.7835 15 4.75 15H15.25C16.2165 15 17 14.2165 17 13.25V6.75C17 5.7835 16.2165 5 15.25 5H4.75Z" fill="#212121"/>
</svg>

<svg xmlns="http://www.w3.org/2000/svg" width="20" height="20"><path d="M6.763 7.075A.5.5 0 0 1 7 7.5v5a.5.5 0 0 1-1 0V8.309l-.276.138a.5.5 0 1 1-.448-.894l1-.5a.5.5 0 0 1 .487.022ZM14 7.5a.5.5 0 0 0-.724-.447l-1 .5a.5.5 0 1 0 .448.894L13 8.31v4.19a.5.5 0 0 0 1 0v-5Zm-4 1a.5.5 0 1 1-1 0 .5.5 0 0 1 1 0ZM9.5 12a.5.5 0 1 0 0-1 .5.5 0 0 0 0 1ZM2 6.75A2.75 2.75 0 0 1 4.75 4h10.5A2.75 2.75 0 0 1 18 6.75v6.5A2.75 2.75 0 0 1 15.25 16H4.75A2.75 2.75 0 0 1 2 13.25v-6.5ZM4.75 5A1.75 1.75 0 0 0 3 6.75v6.5c0 .966.784 1.75 1.75 1.75h10.5A1.75 1.75 0 0 0 17 13.25v-6.5A1.75 1.75 0 0 0 15.25 5H4.75Z"/></svg>
